X: 1
T:Hey Diddle Dis, Bledington
M:6/8
L:1/8
A:Bledington
P:A(A2B)6
K:G
P:A
g>fg a>gf|g>fe d>ef|g>fg e>dc|B2A G3||
P:B
A>Bc B>AG|A>Bc d>ef|g>fg a>gf|g3  g3||

